PortableApps/LibreOfficePortable/App/libreoffice/help/media/icon-themes/cmd/sc_auditingfillmode.svg

<svg viewBox="0 0 16 16" xmlns="http://www.w3.org/2000/svg"><path d="m14 0-5.6503906.68554688 1.1269531 1.67187502-5.1328125 3.3574219c-.8572612-.841204-2.1970674-.9718372-3.2050781-.3125-1.17122159.7661809-1.49036865 2.3225694-.71289065 3.4765624.77747655 1.1543098 2.35762645 1.4691158 3.52929685.703125.1352562-.0894481.2614859-.1914784.3769531-.3046874l1.6796876 1.0996092c.0102072-.366569.0720841-.7183411.1660156-1.0585936-.0120046-.0223134-.0289642-.042238-.0410156-.0644532l-1.2363282-.8085937c.0594786-.1439442.1052484-.2930228.1367188-.4453125h1.7285156c.2586333-.3842396.5861819-.7114244.9472656-1h-2.671875c-.0319838-.1530177-.0784095-.3027569-.1386718-.4472656l5.1367182-3.359375 1.126954 1.671875zm-3 5v1.0507812c1.144418.1297571 2.154932.6834041 2.876953 1.5117188l1.123047-.5625z" fill="#808080"/><path d="m10.5 7a3.5 3.5 0 0 0 -3.5 3.5 3.5 3.5 0 0 0 3.5 3.5 3.5 3.5 0 0 0 2.035156-.65625l2.501953 2.488281a.56140807.56140807 0 1 0 .791016-.796875l-2.498047-2.482422a3.5 3.5 0 0 0 .669922-2.052734 3.5 3.5 0 0 0 -3.5-3.5zm0 1a2.5 2.5 0 0 1 2.5 2.5 2.5 2.5 0 0 1 -2.5 2.5 2.5 2.5 0 0 1 -2.5-2.5 2.5 2.5 0 0 1 2.5-2.5z" fill="#4d82b8"/><path d="m10.5 8a2.5 2.5 0 0 0 -2.5 2.5 2.5 2.5 0 0 0 2.5 2.5 2.5 2.5 0 0 0 2.5-2.5 2.5 2.5 0 0 0 -2.5-2.5z" fill="#fff"/></svg>

<svg viewBox="0 0 16 16" xmlns="http://www.w3.org/2000/svg">
  <path
     style="fill:#808080"
     d="M 14 0 L 8.3496094 0.68554688 L 9.4765625 2.3574219 L 4.34375 5.7148438 C 3.4864888 4.8736398 2.1466826 4.7430066 1.1386719 5.4023438 C -0.032549685 6.1685247 -0.35169675 7.7249132 0.42578125 8.8789062 C 1.2032578 10.033216 2.7834077 10.348022 3.9550781 9.5820312 C 4.0903343 9.4925831 4.216564 9.3905528 4.3320312 9.2773438 L 6.0117188 10.376953 C 6.021926 10.010384 6.0838029 9.6586119 6.1777344 9.3183594 C 6.1657298 9.296046 6.1487702 9.2761214 6.1367188 9.2539062 L 4.9003906 8.4453125 C 4.9598692 8.3013683 5.005639 8.1522897 5.0371094 8 L 6.765625 8 C 7.0242583 7.6157604 7.3518069 7.2885756 7.7128906 7 L 5.0410156 7 C 5.0090318 6.8469823 4.9626061 6.6972431 4.9023438 6.5527344 L 10.039062 3.1933594 L 11.166016 4.8652344 L 14 0 z M 11 5 L 11 6.0507812 C 12.144418 6.1805383 13.154932 6.7341853 13.876953 7.5625 L 15 7 L 11 5 z "
     />
  <path
     style="fill:#4d82b8"
     d="M 10.5,7 A 3.5,3.5 0 0 0 7,10.5 3.5,3.5 0 0 0 10.5,14 3.5,3.5 0 0 0 12.535156,13.34375 l 2.501953,2.488281 a 0.56140807,0.56140807 0 1 0 0.791016,-0.796875 L 13.330078,12.552734 A 3.5,3.5 0 0 0 14,10.5 3.5,3.5 0 0 0 10.5,7 Z m 0,1 A 2.5,2.5 0 0 1 13,10.5 2.5,2.5 0 0 1 10.5,13 2.5,2.5 0 0 1 8,10.5 2.5,2.5 0 0 1 10.5,8 Z"
     />
  <path
     style="fill:#ffffff"
     d="M 10.5 8 A 2.5 2.5 0 0 0 8 10.5 A 2.5 2.5 0 0 0 10.5 13 A 2.5 2.5 0 0 0 13 10.5 A 2.5 2.5 0 0 0 10.5 8 z "
     />
</svg>
